X: 29506
T: Nine Pint Coggie, The
R: reel
M: 4/4
K: Edorian
D|B,EE/E/E E2DB|ADFD FAAd|B2BA Beef|dDD/D/D FEE:|
F|Eeef fedB|defe dBAd|Beed efab|afed e2df|
abaf edef|dBAF ABde|fdec dBBc|dDD/D/D FEE||

